src/icon/animals/owl.svg

<svg enable-background="new 0 0 24 24" viewBox="0 0 24 24" xmlns="http://www.w3.org/2000/svg"><circle cx="8.5" cy="11.5" r="1.5"/><path d="m19 6.8 2.6-2c.4-.3.5-.8.3-1.2s-.6-.6-1.1-.6l-4.3.7-4.4-.7c-.1 0-.2 0-.3 0l-4.3.7-4.4-.7c-.4 0-.8.2-1 .6s-.1.9.3 1.2l2.6 2c-1.8 1-3 3-3 5.2 0 3.3 2.7 6 6 6h1l3 3 3-3c.3 0 .6.1.9.1 3.3 0 6-2.7 6-6 .1-2.3-1.1-4.2-2.9-5.3zm-11.7-1.1h.3l4.4-.7 4.3.7h.3l.7-.1-5.3 4.1-5.4-4.1zm1.2 9.3c-1.9 0-3.5-1.6-3.5-3.5 0-1.4.8-2.6 2-3.1l4.4 3.4c.2.1.4.2.6.2-.3 1.7-1.7 3-3.5 3zm7 0c-1.8 0-3.2-1.3-3.5-3 .2 0 .4-.1.6-.2l4.4-3.4c1.2.6 2 1.7 2 3.1 0 1.9-1.6 3.5-3.5 3.5z"/><circle cx="15.5" cy="11.5" r="1.5"/></svg>

<?xml version="1.0" encoding="utf-8"?>
<!-- Generator: Adobe Illustrator 18.0.0, SVG Export Plug-In . SVG Version: 6.00 Build 0)  -->
<!DOCTYPE svg PUBLIC "-//W3C//DTD SVG 1.1//EN" "http://www.w3.org/Graphics/SVG/1.1/DTD/svg11.dtd">
<svg version="1.1" id="Layer_1" xmlns="http://www.w3.org/2000/svg" xmlns:xlink="http://www.w3.org/1999/xlink" x="0px" y="0px"
	 viewBox="0 0 24 24" enable-background="new 0 0 24 24" xml:space="preserve">
<g>
	<circle cx="8.5" cy="11.5" r="1.5"/>
	<path d="M19,6.8l2.6-2C22,4.5,22.1,4,21.9,3.6C21.7,3.2,21.3,3,20.8,3l-4.3,0.7L12.1,3c-0.1,0-0.2,0-0.3,0L7.5,3.7L3.1,3
		C2.7,3,2.3,3.2,2.1,3.6C1.9,4,2,4.5,2.4,4.8l2.6,2c-1.8,1-3,3-3,5.2c0,3.3,2.7,6,6,6C8.3,18,8.6,18,9,18l3,3l3-3
		c0.3,0,0.6,0.1,0.9,0.1c3.3,0,6-2.7,6-6C22,9.8,20.8,7.9,19,6.8z M7.3,5.7c0.1,0,0.2,0,0.3,0L12,5l4.3,0.7c0.1,0,0.2,0,0.3,0
		l0.7-0.1L12,9.7L6.6,5.6L7.3,5.7z M8.5,15C6.6,15,5,13.4,5,11.5c0-1.4,0.8-2.6,2-3.1l4.4,3.4c0.2,0.1,0.4,0.2,0.6,0.2
		C11.7,13.7,10.3,15,8.5,15z M15.5,15c-1.8,0-3.2-1.3-3.5-3c0.2,0,0.4-0.1,0.6-0.2L17,8.4c1.2,0.6,2,1.7,2,3.1
		C19,13.4,17.4,15,15.5,15z"/>
	<circle cx="15.5" cy="11.5" r="1.5"/>
</g>
</svg>
